!!!!SEGMENT: Distler_Jahrkreis_01_O-Heiland-reiss-die-Himmel-auf.krn
!!!COM: Distler, Hugo
!!!CDT: 1908-1942
!!!LAR: Luther, Martin
!!!OPR@@DE: Der Jahrkreis
!!!OPR@EN: The Year Cycle
!!!OTL@@DE: O Heiland, reiss die Himmel auf
!!!OTL@EN: O Savior, tear open the heavens
!!!OPS: 5
!!!ONM: 1
**kern	**text	**kern	**text	**kern	**text
*part3	*part3	*part2	*part2	*part1	*part1
*staff3	*staff3	*staff2	*staff2	*staff1	*staff1
*Ialto	*	*Isoprn	*	*Isoprn	*
*clefG2	*	*clefG2	*	*clefG2	*
*k[]	*	*k[]	*	*k[]	*
*M3/4yy	*	*M2/4yy	*	*M4/4yy	*
*MM80	*	*MM80	*	*MM80	*
*	*v:1	*	*v:1	*	*v:1
4A	O	4r	.	4r	.
=1	=1	=1	=1	=1	=1
*M3/4	*	*M2/4	*	*M4/4	*
2c	Hei-	4r	.	2r	.
.	.	4d	O	.	.
=-	=-	=2	=2	=-	=-
*	*	*M3/4	*	*	*
4d	-land,	2f	Hei-	4r	.
=2	=2	=-	=-	=-	=-
2e	reiss	.	.	4a	O
=-	=-	=-	=-	=2	=2
*	*	*	*	*M3/4	*
.	.	4g	-land,	2cc	Hei-
=-	=-	=3	=3	=-	=-
4A	die	2a	reiss	.	.
=3	=3	=-	=-	=-	=-
4c	Him-	.	.	4dd	-land,
=-	=-	=-	=-	=3	=3
*	*	*	*	*M2/4	*
2B	-mel	4d	die	4ee	reiss
=-	=-	=4	=4	=-	=-
*	*	*M4/4	*	*	*
.	.	(4f	Him-	4a	die
=4	=4	=-	=-	=4	=4
*	*	*	*	*M6/4	*
2A	auf,	4.e	.	(4cc	Him-
.	.	.	.	4.b	.
.	.	8d)	.	.	.
4r	.	4e	-mel	.	.
.	.	.	.	8cc	.
=5	=5	=5	=5	=-	=-
*	*	*M3/4	*	*	*
4B	her-	2d	auf,	4dd)	.
4B	-ab,	.	.	2b	-mel
4c	her-	4r	.	.	.
!!LO:LB:g=original
=6	=6	=6	=6	=5	=5
*	*	*	*	*M3/4	*
2d	-ab	4e	her-	2a	auf,
.	.	4e	-ab,	.	.
4A	vom	4f	her-	4r	.
=7	=7	=7	=7	=6	=6
(4.c	Him-	2g	-ab	4a	her-
.	.	.	.	4a	-ab,
8d)	.	.	.	.	.
4B	-mel	4d	vom	4b	her-
=8	=8	=8	=8	=7	=7
*	*	*M6/4	*	*M6/4	*
2A	lauf!	(4.e	Him-	4cc	-ab
.	.	.	.	(4.f	vom_
.	.	8d	.	.	.
4r	.	4e	.	.	.
.	.	.	.	8gL	.
=9	=9	=-	=-	=-	=-
2.r	.	2f)	.	8a	.
.	.	.	.	8b-XJ)	.
.	.	.	.	4g	Him-
.	.	4e	-mel	4g	-mel
=10	=10	=9	=9	=8	=8
*M4/4	*	*M4/4	*	*M4/4	*
4f	Reiss	4f,	lauf!	4f,	lauf!
2f	ab	4cc	Reiss	4cc	Reiss
.	.	4a	ab	4cc	ab
4f	vom	4cc	vom	4cc	vom
!!LO:LB:g=original
=11	=11	=10	=10	=9	=9
*M3/4	*	*M3/4	*	*M5/4	*
2e	Him-	2f	Him-	4cc	Him-
.	.	.	.	4a	-mel
4d	-mel	4f	-mel	(4.dd	Tor_
=12	=12	=11	=11	=-	=-
*M2/4	*	*M2/4	*	*	*
*^	*	*	*	*	*
4g	4g	Tor	4.b-X	Tor	.	.
.	.	.	.	.	8ee)	.
4f	4g	und	.	.	4dd	und
.	.	.	8a	und	.	.
=13	=13	=13	=12	=12	=10	=10
*	*M2/4	*	*M2/4	*	*M2/4	*
4e,	4c	Tuer',	4g,	Tuer',	4cc,	Tuer',
4d	4d	reiss	4f	reiss	4a	reiss
*v	*v	*	*	*	*	*
=14	=14	=13	=13	=11	=11
*M3/4	*	*M5/4	*	*M5/4	*
2d	ab,	4f	ab,	4a	ab,
.	.	4g	wo	4g	wo
4d	wo	2e	Schloss	(4.a	Schloss_
=15	=15	=-	=-	=-	=-
*M5/4	*	*	*	*	*
2A	Schloss	.	.	.	.
.	.	.	.	8g)	.
.	.	4d	und	4f	und
=-	=-	=14	=14	=12	=12
*	*	*M3/4	*	*M3/4	*
4A	und	4d	Rie-	4g	Rie-
4A	Rie-	2c	-gel	2e	-gel
4G	-gel	.	.	.	.
=16	=16	=15	=15	=13	=13
2A	fuer!	2d	fuer!	2f#X	fuer!
=||	=||	=||	=||	=||	=||
*-	*-	*-	*-	*-	*-
!!!ONB@@DE: Nur bei einigen besonders typischen Sätzen wurde in der Notierung auf die polyrhythmische Selbständigkeit der einzelnen Stimmen Rücksicht genommen.
!!!ONB@EN: Only in some particularly typical phrases was consideration given to the polyrhythmic independence of each voice.
!!!YOR: Bärenreiter-Ausgabe 676
!!!YOY: 1933
!!!EFL: 1/52
!!!URL-github: https://github.com/LucasHofmann/distler/blob/main/Jahrkreis/Distler_Jahrkreis_01_O-Heiland-reiss-die-Himmel-auf.krn
!!!URL-pdf: https://imslp.eu/files/imglnks/euimg/7/7d/IMSLP834545-PMLP518834-5-jahrkreis-EA--original-paper-600dpi.pdf#page=8 First edition, Kassel: Bärenreiter, 1933. Plate BA 676.
!!!URL-imslp: https://imslp.org/wiki/Der_Jahrkreis,_Op.5_(Distler,_Hugo)#IMSLP834545
!!!URL-youtube: https://www.youtube.com/watch?v=XHv4lDNtMLs Christophoruskirche Wiesbaden-Schierstein
!!!system-decoration: [(s1,s2,s3)]
!!!ENC: Craig Stuart Sapp
!!!END: 2023/09/10
!!!title: @{OPR@@DE}, Op. @{OPS}, Nr. @{ONM}. <i>@{OTL@@DE}</i>
